X: 43577
T: Young Joe
R: reel
M: 4/4
K: Gmajor
F|:G2 de dBGB|cFFF A2 AG|FGAB cFFF|AGAd BGdG|
Bcde dBGB|cFFF A2 AG|FADF AdcA|1 decd BGAF:|2 decd BGGG||
|:B/2c/2dgf edcB|Aa^ga fdcA|BdGB ceAG|FGAB cedc|
^cdgb gdBd|ceee a2 AG|FDFA dfed|1 cABA G2 GA:|2 cABA G2 GF||

